Sources/FrostedUI/Resources/Icons.xcassets/starHalf24.imageset/star-half-24.svg

<svg width="24" height="24" viewBox="0 0 24 24" fill="none" xmlns="http://www.w3.org/2000/svg" data-fui-icon="true">
  <path
    fill-rule="evenodd"
    clip-rule="evenodd"
    d="M22.426 8.532C22.245 7.973 21.769 7.578 21.186 7.502L15.729 6.784L13.36 1.854C13.107 1.327 12.585 1 11.999 1C11.413 1 10.892 1.328 10.638 1.854L8.26303 6.788L2.81403 7.502C2.23003 7.578 1.75403 7.973 1.57303 8.532C1.39203 9.09 1.54603 9.687 1.97303 10.09L5.95903 13.85L4.95803 19.217C4.85103 19.792 5.07903 20.363 5.55103 20.708C5.81703 20.902 6.12703 21 6.44003 21C6.68503 21 6.93202 20.939 7.15902 20.816L12.005 18.21L16.84 20.816C17.359 21.096 17.975 21.054 18.448 20.707C18.921 20.362 19.148 19.79 19.041 19.216L18.042 13.845L22.025 10.089C22.453 9.686 22.606 9.089 22.425 8.531L22.426 8.532ZM17.013 12.754C16.639 13.107 16.471 13.619 16.566 14.124L17.552 19.496L12.717 16.89C12.492 16.769 12.246 16.708 12 16.708V2.499L12.009 2.503L14.377 7.433C14.599 7.894 15.034 8.209 15.542 8.275L20.997 8.997L17.013 12.754Z"
    fill="currentColor"
  />
</svg>

<svg xmlns="http://www.w3.org/2000/svg" width="24" height="24" fill="none" data-fui-icon="true" viewBox="0 0 24 24"><path fill="currentColor" fill-rule="evenodd" d="M22.426 8.532a1.5 1.5 0 0 0-1.24-1.03l-5.457-.718-2.369-4.93A1.5 1.5 0 0 0 11.999 1a1.5 1.5 0 0 0-1.361.854L8.263 6.788l-5.449.714a1.5 1.5 0 0 0-1.241 1.03 1.49 1.49 0 0 0 .4 1.558l3.986 3.76-1.001 5.367a1.49 1.49 0 0 0 .593 1.491 1.5 1.5 0 0 0 1.608.108l4.846-2.606 4.835 2.606c.519.28 1.135.238 1.608-.109.473-.345.7-.917.593-1.491l-.999-5.371 3.983-3.756c.428-.403.581-1 .4-1.558zm-5.413 4.222a1.5 1.5 0 0 0-.447 1.37l.986 5.372-4.835-2.606a1.5 1.5 0 0 0-.717-.182V2.499l.009.004 2.368 4.93c.222.461.657.776 1.165.842l5.455.722z" clip-rule="evenodd"/></svg>
